icons/svg/backspace.svg

<svg width="24" height="24" viewBox="0 0 24 24" fill="none" xmlns="http://www.w3.org/2000/svg">
<path d="M6.7106 6.08435C7.37317 5.36656 8.30557 4.95833 9.28241 4.95833H17.25C19.183 4.95833 20.75 6.52533 20.75 8.45833V15.5417C20.75 17.4747 19.183 19.0417 17.25 19.0417H9.28241C8.30557 19.0417 7.37317 18.6334 6.7106 17.9156L3.44137 14.374C2.20378 13.0333 2.20378 10.9667 3.44137 9.62601L6.7106 6.08435Z" stroke="currentColor" stroke-width="1.5" stroke-linecap="round" stroke-linejoin="round"/>
<path d="M10.8208 9.36485L16.0911 14.6351M16.0911 9.36485L10.8208 14.6351" stroke="currentColor" stroke-width="1.5" stroke-linecap="round" stroke-linejoin="round"/>
</svg>

<svg xmlns="http://www.w3.org/2000/svg" width="24" height="24" fill="none" viewBox="0 0 24 24"><path stroke="currentColor" stroke-linecap="round" stroke-linejoin="round" stroke-width="1.5" d="M6.71 6.084a3.5 3.5 0 0 1 2.572-1.126h7.968a3.5 3.5 0 0 1 3.5 3.5v7.084a3.5 3.5 0 0 1-3.5 3.5H9.282a3.5 3.5 0 0 1-2.571-1.126l-3.27-3.542a3.5 3.5 0 0 1 0-4.748zm4.11 3.281 5.271 5.27m0-5.27-5.27 5.27"/></svg>
